X: 66
T: No_158_A_Black_Crow.krn
N: Derived from No_158_A_Black_Crow.krn
%%abc-version 2.0
%%abcx-abcm2ps-target-version 5.9.1 (29 Sep 2008)
%%abc-creator hum2abc beta
%%abcx-conversion-date 2019/03/15 08:37:56
%%humdrum-veritas 4106072348
%%humdrum-veritas-data 2666391436
%%linebreak <none>
%%barnumbers 0
L: 1/4
M: 2/4
K: Eb clef=bass
B, [I:setbarnb 1]| 
G2 | 
F(G | 
E)C | 
B,E | 
F/F/!fermata!F | 
E/ z/G | 
F2 | 
CB, ||  
[M:3/4](E2B,) ||  
[M:2/4]CG, | 
B,2 | 
G,/F,/-F, | 
B,2 ||  
[M:3/4]B,z3// G//G ||  
[M:2/4]FE | 
CE | 
E(C | 
B,)C ||  
[M:3/4]E2B, ||  
[M:2/4]C/B,/-B, | 
F,/E,/-E, | 
B,2 |]  



